img/games/checkers.svg

<svg width="1000" height="1000" viewBox="0 0 750 750" xmlns="http://www.w3.org/2000/svg"><g fill="#0e87df"><path d="M373.43 0H750v376.7c-124.44.02-248.87-.03-373.31.02.01 124.43.02 248.85 0 373.28H0V373.4c124.48-.03 248.96.02 373.44-.02-.03-124.46-.01-248.92-.01-373.38m196.89 83.51c-20.66-1.91-41.95 2.98-59.33 14.41-17.61 11.3-31.12 28.78-37.67 48.65-4.84 14.95-6.09 31.14-2.96 46.57 3.46 18.78 13.13 36.33 26.99 49.44 13.01 12.66 29.94 20.99 47.73 24.31 10.88 1.64 21.98 1.66 32.84-.12 15.62-2.99 30.52-9.88 42.66-20.18 15.34-12.7 26.29-30.58 30.76-49.98 4.14-18.1 2.84-37.45-3.99-54.74-6.13-15.82-16.85-29.77-30.35-40.03-13.45-10.32-29.84-16.57-46.68-18.33M172.05 465.98c-21.38 1.43-42.08 10.7-57.51 25.57-14.45 13.8-24.14 32.37-27.34 52.08-2.6 17.15-.64 35.08 6.31 51.02 13.64 32.9 47.79 56.2 83.5 56.13 32.49 1.12 64.57-16.97 80.99-44.93 17.3-28.24 17.47-65.94.43-94.32-8.94-15.35-22.46-27.93-38.28-35.96-14.81-7.33-31.59-10.93-48.1-9.59z"/><path d="M165.61 83.9c15.19-1.8 30.89-.58 45.23 4.95 22.39 8.17 41.25 25.47 51.37 47.04 7.25 14.87 10.04 31.78 8.53 48.23-1.73 21.58-11.67 42.32-27.13 57.44-13.84 13.8-32.23 22.96-51.57 25.72-17.01 2.29-34.7.3-50.42-6.74-17.84-7.72-33.1-21.26-42.89-38.06-12.01-20.4-15.92-45.54-10.09-68.53 5.34-22.99 20.1-43.58 39.99-56.24 11.13-7.26 23.88-11.78 36.98-13.81zM553.08 466.07c33.99-3.44 68.91 14.12 86.68 43.27 18.43 28.84 18.61 68.04.55 97.09-10.23 16.78-25.89 30.28-44.14 37.63-27.89 11.64-61.48 8.29-86.45-8.78-16.49-10.98-29.3-27.41-35.83-46.12-9.55-26.49-6-57.25 9.38-80.84 15.14-23.82 41.64-40.01 69.81-42.25z"/></g></svg>

<?xml version="1.0" encoding="UTF-8" ?>
<!DOCTYPE svg PUBLIC "-//W3C//DTD SVG 1.1//EN" "http://www.w3.org/Graphics/SVG/1.1/DTD/svg11.dtd">
<svg width="750pt" height="750pt" viewBox="0 0 750 750" version="1.1" xmlns="http://www.w3.org/2000/svg">
<g id="#0e87dfff">
<path fill="#0e87df" opacity="1.00" d=" M 373.43 0.00 L 750.00 0.00 L 750.00 376.70 C 625.56 376.72 501.13 376.67 376.69 376.72 C 376.70 501.15 376.71 625.57 376.69 750.00 L 0.00 750.00 L 0.00 373.40 C 124.48 373.37 248.96 373.42 373.44 373.38 C 373.41 248.92 373.43 124.46 373.43 0.00 M 570.32 83.51 C 549.66 81.60 528.37 86.49 510.99 97.92 C 493.38 109.22 479.87 126.70 473.32 146.57 C 468.48 161.52 467.23 177.71 470.36 193.14 C 473.82 211.92 483.49 229.47 497.35 242.58 C 510.36 255.24 527.29 263.57 545.08 266.89 C 555.96 268.53 567.06 268.55 577.92 266.77 C 593.54 263.78 608.44 256.89 620.58 246.59 C 635.92 233.89 646.87 216.01 651.34 196.61 C 655.48 178.51 654.18 159.16 647.35 141.87 C 641.22 126.05 630.50 112.10 617.00 101.84 C 603.55 91.52 587.16 85.27 570.32 83.51 M 172.05 465.98 C 150.67 467.41 129.97 476.68 114.54 491.55 C 100.09 505.35 90.40 523.92 87.20 543.63 C 84.60 560.78 86.56 578.71 93.51 594.65 C 107.15 627.55 141.30 650.85 177.01 650.78 C 209.50 651.90 241.58 633.81 258.00 605.85 C 275.30 577.61 275.47 539.91 258.43 511.53 C 249.49 496.18 235.97 483.60 220.15 475.57 C 205.34 468.24 188.56 464.64 172.05 465.98 Z" />
<path fill="#0e87df" opacity="1.00" d=" M 165.61 83.90 C 180.80 82.10 196.50 83.32 210.84 88.85 C 233.23 97.02 252.09 114.32 262.21 135.89 C 269.46 150.76 272.25 167.67 270.74 184.12 C 269.01 205.70 259.07 226.44 243.61 241.56 C 229.77 255.36 211.38 264.52 192.04 267.28 C 175.03 269.57 157.34 267.58 141.62 260.54 C 123.78 252.82 108.52 239.28 98.73 222.48 C 86.72 202.08 82.81 176.94 88.64 153.95 C 93.98 130.96 108.74 110.37 128.63 97.71 C 139.76 90.45 152.51 85.93 165.61 83.90 Z" />
<path fill="#0e87df" opacity="1.00" d=" M 553.08 466.07 C 587.07 462.63 621.99 480.19 639.76 509.34 C 658.19 538.18 658.37 577.38 640.31 606.43 C 630.08 623.21 614.42 636.71 596.17 644.06 C 568.28 655.70 534.69 652.35 509.72 635.28 C 493.23 624.30 480.42 607.87 473.89 589.16 C 464.34 562.67 467.89 531.91 483.27 508.32 C 498.41 484.50 524.91 468.31 553.08 466.07 Z" />
</g>
</svg>
